flaticon/transportation/truck-11.svg

<svg xmlns="http://www.w3.org/2000/svg" width="32" height="32" viewBox="0 0 24 24">
    <path d="M 24 14.535156 C 24 12.660156 22.542969 11.121094 20.707031 10.984375 L 17.011719 5.609375 L 15.117188 5.609375 L 15.117188 3.554688 C 15.117188 3.273438 14.890625 3.042969 14.609375 3.042969 C 14.324219 3.042969 14.097656 3.273438 14.097656 3.554688 L 14.097656 5.609375 L 12.613281 5.609375 L 12.613281 3.328125 L 0 3.328125 L 0 17.28125 L 1.984375 17.28125 C 1.980469 17.355469 1.976562 17.429688 1.976562 17.503906 C 1.976562 19.40625 3.527344 20.957031 5.429688 20.957031 C 7.332031 20.957031 8.882812 19.40625 8.882812 17.503906 C 8.882812 17.429688 8.878906 17.355469 8.875 17.28125 L 14.789062 17.28125 C 14.785156 17.355469 14.78125 17.429688 14.78125 17.503906 C 14.78125 19.40625 16.328125 20.957031 18.234375 20.957031 C 20.136719 20.957031 21.683594 19.40625 21.683594 17.503906 C 21.683594 17.429688 21.679688 17.355469 21.675781 17.28125 L 24 17.28125 Z M 16.472656 6.632812 L 19.457031 10.972656 L 12.613281 10.972656 L 12.613281 6.632812 Z M 1.019531 4.347656 L 11.59375 4.347656 L 11.59375 10.972656 L 1.019531 10.972656 Z M 5.429688 19.933594 C 4.089844 19.933594 3 18.84375 3 17.503906 C 3 16.164062 4.089844 15.074219 5.429688 15.074219 C 6.769531 15.074219 7.859375 16.164062 7.859375 17.503906 C 7.859375 18.84375 6.769531 19.933594 5.429688 19.933594 Z M 18.234375 19.933594 C 16.890625 19.933594 15.800781 18.84375 15.800781 17.503906 C 15.800781 16.164062 16.890625 15.074219 18.234375 15.074219 C 19.574219 15.074219 20.664062 16.164062 20.664062 17.503906 C 20.664062 18.84375 19.574219 19.933594 18.234375 19.933594 Z M 22.980469 16.257812 L 21.449219 16.257812 C 20.949219 14.96875 19.695312 14.050781 18.234375 14.050781 C 16.769531 14.050781 15.515625 14.96875 15.015625 16.257812 L 8.648438 16.257812 C 8.148438 14.96875 6.894531 14.050781 5.429688 14.050781 C 3.964844 14.050781 2.710938 14.96875 2.210938 16.257812 L 1.019531 16.257812 L 1.019531 11.992188 L 20.4375 11.992188 C 21.839844 11.992188 22.980469 13.132812 22.980469 14.535156 Z M 22.980469 16.257812"/>
</svg>

<svg xmlns="http://www.w3.org/2000/svg" width="32" height="32" viewBox="0 0 24 24">
    <path d="M24 14.535a3.566 3.566 0 0 0-3.293-3.55l-3.695-5.376h-1.895V3.555a.51.51 0 1 0-1.02 0v2.054h-1.484V3.33H0V17.28h1.984a3.46 3.46 0 0 0 3.445 3.676 3.46 3.46 0 0 0 3.446-3.676h5.914a3.457 3.457 0 0 0 3.445 3.676 3.456 3.456 0 0 0 3.442-3.676H24zm-7.527-7.902l2.984 4.34h-6.844v-4.34zM1.02 4.348h10.574v6.625H1.02zm4.41 15.586c-1.34 0-2.43-1.09-2.43-2.43s1.09-2.43 2.43-2.43 2.43 1.09 2.43 2.43-1.09 2.43-2.43 2.43zm12.804 0a2.433 2.433 0 0 1-2.433-2.43 2.432 2.432 0 0 1 4.863 0c0 1.34-1.09 2.43-2.43 2.43zm4.746-3.676h-1.53a3.456 3.456 0 0 0-3.216-2.207 3.457 3.457 0 0 0-3.218 2.207H8.648A3.457 3.457 0 0 0 5.43 14.05a3.457 3.457 0 0 0-3.22 2.207H1.02v-4.266h19.418a2.546 2.546 0 0 1 2.542 2.543zm0 0"/>
</svg>
